static/img/device/component-pvc-anchors1.svg

<svg xmlns="http://www.w3.org/2000/svg" width="23" height="83" fill="none" viewBox="0 0 23 83"><g clip-path="url(#a)"><path fill="#fff" d="m10.71 78.96-1.44 2.63c-.55.95-1.67.87-2.34-.11l-4.27-6.5.03-5.79.98-1.24V65.6l-.95-1.13.04-6.93.98-1.24v-2.35l-.95-1.13.04-6.97.98-1.24v-2.35l-.95-1.13v-1.32l.03-3.76h1.6c1.5.02 1.45-2.79.01-2.79H3.17l-2.92-8.5 3.81-.13L2.96 23 3.08.25l16.13.09-.09 16.95-1.01 1.21-.02 3.02 1 .99v2.36l2.68.02-3.02 8.46h-1.33c-1.44-.02-1.52 2.79-.01 2.8h.63l-.01 2.67.96 1.11-.04 7.93-.98 1.12v2.35l.95 1.25-.04 6.96-.98 1.12v2.35l.95 1.25-.06 10.83-4.34 6.45c-.68.98-1.8 1.04-2.34.09l-1.41-2.65"/><path fill="#e6e6e6" d="m14.13 81.18 2.81-6.29.03-5.73-2.62-.01.02-4.57 2.63.02.04-7.09-2.63-.01.03-4.57 2.62.02.04-7.07-2.63-.01.03-4.57 2.63.02.02-4.9.26-.28h.64l-.02 2.66.96 1.11-.04 7.93-.98 1.12-.01 2.35.96 1.25-.03 6.96-.98 1.12-.01 2.35.96 1.25-.06 10.83-4.34 6.45z"/><path fill="#b3b3b3" d="m10.28 78.08.27-49.69a.435.435 0 0 1 .87.01l-.27 49.68c0 .24-.2.43-.43.43-.24 0-.43-.2-.43-.44zM10.59 23.19l.04-7.81a.435.435 0 0 1 .87 0l-.04 7.81a.435.435 0 0 1-.87-.01z"/><path fill="#e6e6e6" d="m8.38 41.27 1.24.01-.03 4.56H8.36M8.32 52.9h1.23l-.02 4.57-1.24-.01M8.26 64.55l1.23.01-.02 4.56H8.23"/><path stroke="#666" stroke-linecap="round" stroke-linejoin="round" stroke-width=".3" d="m3.98 41.24 5.64.04-.03 4.56-5.63-.03M5.28 24.64l12.47.07M3.92 52.87l5.63.03-.02 4.57-5.64-.03M3.86 64.52l5.63.04-.02 4.56-5.64-.03M14.13 81.18l2.81-6.29.03-5.73-2.62-.01.02-4.57 2.63.02.04-7.09-2.63-.01.03-4.57 2.62.02.04-7.07-2.63-.01.03-4.57 2.63.02.02-4.9"/><path stroke="#000" stroke-linecap="round" stroke-linejoin="round" stroke-width=".5" d="m10.71 78.96-1.44 2.63c-.55.95-1.67.87-2.34-.11l-4.27-6.5.03-5.79.98-1.24V65.6l-.95-1.13.04-6.93.98-1.24v-2.35l-.95-1.13.04-6.97.98-1.24v-2.35l-.95-1.13v-1.32l.03-3.76h1.6c1.5.02 1.45-2.79.01-2.79H3.17l-2.92-8.5 3.81-.13L2.96 23 3.08.25l16.13.09-.09 16.95-1.01 1.21-.02 3.02 1 .99v2.36l2.68.02-3.02 8.46h-1.33c-1.44-.02-1.52 2.79-.01 2.8h.63l-.01 2.67.96 1.11-.04 7.93-.98 1.12v2.35l.95 1.25-.04 6.96-.98 1.12v2.35l.95 1.25-.06 10.83-4.34 6.45c-.68.98-1.8 1.04-2.34.09l-1.41-2.65"/></g><defs><clipPath id="a"><path fill="#fff" d="M0 0h22.02v82.54H0z"/></clipPath></defs></svg>

<svg width="23" height="83" viewBox="0 0 23 83" fill="none" xmlns="http://www.w3.org/2000/svg">
<g clip-path="url(#clip0_75_3098)">
<path d="M10.71 78.96L9.27 81.59C8.72 82.54 7.6 82.46 6.93 81.48L2.66 74.98L2.69 69.19L3.67 67.95V65.6L2.72 64.47L2.76 57.54L3.74 56.3V53.95L2.79 52.82L2.83 45.85L3.81 44.61V42.26L2.86 41.13V39.81L2.89 36.05H4.49C5.99 36.07 5.94 33.26 4.5 33.26H3.17L0.25 24.76L4.06 24.63L2.96 23L3.08 0.25L19.21 0.34L19.12 17.29L18.11 18.5L18.09 21.52L19.09 22.51V24.87L21.77 24.89L18.75 33.35H17.42C15.98 33.33 15.9 36.14 17.41 36.15H18.04L18.03 38.82L18.99 39.93L18.95 47.86L17.97 48.98V51.33L18.92 52.58L18.88 59.54L17.9 60.66V63.01L18.85 64.26L18.79 75.09L14.45 81.54C13.77 82.52 12.65 82.58 12.11 81.63L10.7 78.98" fill="white"/>
<path d="M14.13 81.18L16.94 74.89L16.97 69.16L14.35 69.15L14.37 64.58L17 64.6L17.04 57.51L14.41 57.5L14.44 52.93L17.06 52.95L17.1 45.88L14.47 45.87L14.5 41.3L17.13 41.32L17.15 36.42L17.41 36.14H18.05L18.03 38.8L18.99 39.91L18.95 47.84L17.97 48.96L17.96 51.31L18.92 52.56L18.89 59.52L17.91 60.64L17.9 62.99L18.86 64.24L18.8 75.07L14.46 81.52L14.13 81.18Z" fill="#E6E6E6"/>
<path d="M10.28 78.08L10.55 28.39C10.55 28.15 10.75 27.96 10.99 27.96C11.23 27.96 11.42 28.16 11.42 28.4L11.15 78.08C11.15 78.32 10.95 78.51 10.72 78.51C10.48 78.51 10.29 78.31 10.29 78.07L10.28 78.08Z" fill="#B3B3B3"/>
<path d="M10.59 23.19L10.63 15.38C10.63 15.14 10.83 14.95 11.07 14.95C11.31 14.95 11.5 15.15 11.5 15.38L11.46 23.19C11.46 23.43 11.26 23.62 11.02 23.62C10.78 23.62 10.59 23.42 10.59 23.18V23.19Z" fill="#B3B3B3"/>
<path d="M8.38 41.27L9.62 41.28L9.59 45.84H8.36" fill="#E6E6E6"/>
<path d="M8.32 52.9H9.55L9.53 57.47L8.29 57.46" fill="#E6E6E6"/>
<path d="M8.26 64.55L9.49 64.56L9.47 69.12H8.23" fill="#E6E6E6"/>
<path d="M3.98 41.24L9.62 41.28L9.59 45.84L3.96 45.81" stroke="#666666" stroke-width="0.3" stroke-linecap="round" stroke-linejoin="round"/>
<path d="M5.28 24.64L17.75 24.71" stroke="#666666" stroke-width="0.3" stroke-linecap="round" stroke-linejoin="round"/>
<path d="M3.92 52.87L9.55 52.9L9.53 57.47L3.89 57.44" stroke="#666666" stroke-width="0.3" stroke-linecap="round" stroke-linejoin="round"/>
<path d="M3.86 64.52L9.49 64.56L9.47 69.12L3.83 69.09" stroke="#666666" stroke-width="0.3" stroke-linecap="round" stroke-linejoin="round"/>
<path d="M14.13 81.18L16.94 74.89L16.97 69.16L14.35 69.15L14.37 64.58L17 64.6L17.04 57.51L14.41 57.5L14.44 52.93L17.06 52.95L17.1 45.88L14.47 45.87L14.5 41.3L17.13 41.32L17.15 36.42" stroke="#666666" stroke-width="0.3" stroke-linecap="round" stroke-linejoin="round"/>
<path d="M10.71 78.96L9.27 81.59C8.72 82.54 7.6 82.46 6.93 81.48L2.66 74.98L2.69 69.19L3.67 67.95V65.6L2.72 64.47L2.76 57.54L3.74 56.3V53.95L2.79 52.82L2.83 45.85L3.81 44.61V42.26L2.86 41.13V39.81L2.89 36.05H4.49C5.99 36.07 5.94 33.26 4.5 33.26H3.17L0.25 24.76L4.06 24.63L2.96 23L3.08 0.25L19.21 0.34L19.12 17.29L18.11 18.5L18.09 21.52L19.09 22.51V24.87L21.77 24.89L18.75 33.35H17.42C15.98 33.33 15.9 36.14 17.41 36.15H18.04L18.03 38.82L18.99 39.93L18.95 47.86L17.97 48.98V51.33L18.92 52.58L18.88 59.54L17.9 60.66V63.01L18.85 64.26L18.79 75.09L14.45 81.54C13.77 82.52 12.65 82.58 12.11 81.63L10.7 78.98" stroke="black" stroke-width="0.5" stroke-linecap="round" stroke-linejoin="round"/>
</g>
<defs>
<clipPath id="clip0_75_3098">
<rect width="22.02" height="82.54" fill="white"/>
</clipPath>
</defs>
</svg>
